X:30
T:Lady of the Lake. JBu.30, The
O:England,South Yorkshire
S:Joshua Burnett’s MS,c1835,S.Yorkshire
M:6/8
L:1/8
Q:3/8=120
R:jig
Z:vmp.R.Greig.2011
K:G
BcB”^Key Sig. D in MS” G2D|E2D G2D|BcB G2D|E2AA2c|
BcBG2D|E2DG2D|cBc Adc|BG”^not dotted in MS”GG3:|
|:B2BB2A|B2cd2d|g2fe2d|c2BA2G|
B2BB2A|B2cd2d|gfg eag|fe”^not dotted in MS”fg3:|

